X:56
T:Orinthia. WHG.055
R:Country Dance
S:W.H.Giles MS,Bampton,Oxfordshire,1839p57- p59
O:England
H:donated by Mrs W.R.Kettlewell to VWML,Apr 1927.
A:Bampton, Oxfordshire
N:Bar 4 is |FA df e2 c A2| in the MS. I have moved
N:the 1st note of the B-music into its own bar.
Z:PJHeadford – VMP 2009
M:C
L:1/8
Q:1/2=80
K:D
A2|d2dd d2ef|agfe dcBA|f2ed cBAG|FA df ec A2|
fddd d2ef|agfe dcBA|f2dd B2Bg|fedc d2||
d2|e2ee a^gfe|edfd B2cd|caec BfdB|AcB2 “_ad lib”A2((3a^g=g)|
gf”_Tempo”ed d2eg|agfe dcBA|f2dd “*”B2Bg|fedc d4|]

